img/svg/profile-icons/key-ico.svg

<svg width="22" height="22" viewBox="0 0 22 22" fill="none" xmlns="http://www.w3.org/2000/svg">
<g clip-path="url(#clip0)">
<path d="M21.7626 7.13013C21.3037 5.96164 20.4622 4.27568 19.0593 2.87938C17.6613 1.48788 15.9932 0.670448 14.84 0.229676C13.574 -0.254193 12.1354 0.0507979 11.175 1.00663L7.80034 4.36549C6.79999 5.36111 6.51167 6.89312 7.08286 8.17766C7.25997 8.57607 7.4526 8.96575 7.65842 9.34224L0.25171 16.7489C0.0905348 16.9101 0 17.1287 0 17.3566V21.1378C0 21.6125 0.384741 21.9972 0.859372 21.9972H4.64061C5.11524 21.9972 5.49998 21.6125 5.49998 21.1378V19.591L7.04685 19.5909C7.52148 19.5909 7.90622 19.2062 7.90622 18.7316V17.1847H9.45309C9.92772 17.1847 10.3125 16.8 10.3125 16.3254C10.3125 15.8507 9.92772 15.466 9.45309 15.466H7.04685C6.57222 15.466 6.18748 15.8507 6.18748 16.3254V17.8722L4.64061 17.8722C4.16598 17.8722 3.78124 18.257 3.78124 18.7316V20.2785H1.71874V17.7126L9.33944 10.0919C9.61942 9.81193 9.67188 9.37696 9.46654 9.03845C9.16872 8.54758 8.89514 8.02302 8.65344 7.47934C8.36989 6.84164 8.51435 6.07985 9.01292 5.5836L12.3875 2.22479C12.8693 1.74531 13.5911 1.59238 14.2265 1.83515C15.2243 2.21654 16.6624 2.91856 17.8469 4.09754C19.0386 5.28364 19.7641 6.74298 20.1629 7.75833C20.4117 8.39203 20.2605 9.11197 19.7777 9.59253L16.3623 12.9919C15.8649 13.4869 15.1226 13.6316 14.471 13.3606C13.9336 13.1371 13.4131 12.8715 12.9241 12.5714C12.5196 12.3231 11.9904 12.4498 11.7422 12.8543C11.4939 13.2588 11.6205 13.788 12.025 14.0363C12.5901 14.3831 13.191 14.6897 13.8109 14.9475C15.106 15.4863 16.5834 15.1968 17.5747 14.2102L20.9901 10.8108C21.9588 9.8466 22.2621 8.40187 21.7626 7.13013Z" fill="#4C51CC"/>
<path d="M15.6406 7.39354C16.4 7.39354 17.0156 6.77794 17.0156 6.01855C17.0156 5.25916 16.4 4.64355 15.6406 4.64355C14.8812 4.64355 14.2656 5.25916 14.2656 6.01855C14.2656 6.77794 14.8812 7.39354 15.6406 7.39354Z" fill="#4C51CC"/>
</g>
<defs>
<clipPath id="clip0">
<rect width="22" height="22" fill="white"/>
</clipPath>
</defs>
</svg>

<svg width="22" height="22" fill="none" xmlns="http://www.w3.org/2000/svg"><g clip-path="url(#clip0)" fill="#4C51CC"><path d="M21.763 7.13c-.46-1.168-1.3-2.854-2.704-4.25C17.661 1.487 15.993.67 14.84.23a3.455 3.455 0 00-3.665.777L7.8 4.365a3.439 3.439 0 00-.717 3.813c.177.398.37.788.575 1.164L.252 16.75a.86.86 0 00-.252.608v3.78c0 .476.385.86.86.86h3.78a.86.86 0 00.86-.86v-1.546h1.547a.86.86 0 00.86-.86v-1.546h1.546a.86.86 0 100-1.719H7.047a.86.86 0 00-.86.86v1.546H4.641a.86.86 0 00-.86.86v1.547H1.72v-2.566l7.62-7.621a.86.86 0 00.128-1.054 13.907 13.907 0 01-.814-1.559 1.71 1.71 0 01.36-1.895l3.374-3.36a1.734 1.734 0 011.84-.389c.997.382 2.435 1.084 3.62 2.263 1.192 1.186 1.917 2.645 2.316 3.66a1.707 1.707 0 01-.385 1.835l-3.416 3.399a1.73 1.73 0 01-1.891.369 11.158 11.158 0 01-1.547-.79.86.86 0 10-.899 1.465 12.88 12.88 0 001.786.912 3.444 3.444 0 003.764-.738l3.415-3.4a3.424 3.424 0 00.773-3.68z"/><path d="M15.64 7.394a1.375 1.375 0 100-2.75 1.375 1.375 0 000 2.75z"/></g><defs><clipPath id="clip0"><path fill="#fff" d="M0 0h22v22H0z"/></clipPath></defs></svg>
